!!!COM: Beethoven, Ludwig van
!!!CDT: 1770///-1827///
!!!OTL: Symphony No. 5 in C Minor
!!!OMV: Mvmt. 1
!!!OPS: Op. 67
**kern	**kern	**dynam
*staff2	*staff1	*staff1/2
*Ipiano	*Ipiano	*Ipiano
*>[A,A,B]	*>[A,A,B]	*>[A,A,B]
*>norep[A,B]	*>norep[A,B]	*>norep[A,B]
*>A	*>A	*>A
*clefF4	*clefG2	*clefG2
*k[b-e-a-]	*k[b-e-a-]	*k[b-e-a-]
*M2/4	*M2/4	*M2/4
*MM216	*MM216	*MM216
=1-	=1-	=1-
8r	8r	.
8GG/L	8G/ 8g/L	ff
8GG/	8G/ 8g/	.
8GG/J	8G/ 8g/J	.
=2	=2	=2
*MM60	*MM60	*MM60
2EE-;/ 2E-;/	2e-;/	.
=3	=3	=3
*MM216	*MM216	*MM216
8r	8r	.
8FF/L	8F/ 8f/L	.
8FF/	8F/ 8f/	.
8FF/J	8F/ 8f/J	.
=4	=4	=4
*MM60	*MM60	*MM60
[2DD/ [2D/	[2d/	.
=5	=5	=5
2DD;/] 2D;/]	2d;/]	.
=6	=6	=6
*MM216	*MM216	*MM216
2r	8r	.
.	8g/L	p
.	8g/	.
.	8g/J	.
=7	=7	=7
*^	*	*
[2e-/	[2c\	8r	.
.	.	8a-/L	.
.	.	8a-/	.
.	.	8a-/J	.
=8	=8	=8	=8
*	*	*^	*
2e-/_	2c\_	8r	[2g\	.
.	.	8ee-/L	.	.
.	.	8ee-/	.	.
.	.	8ee-/J	.	.
=9	=9	=9	=9	=9
2e-/_	2c\_	[2cc/	2g\_	.
=10	=10	=10	=10	=10
4e-/]	2c\]	4cc/]	8g\L]	.
.	.	.	8g\	.
4r	.	4r	8g\	.
.	.	.	8g\J	.
*v	*v	*	*	*
*	*v	*v	*
=11	=11	=11
[2Bn\ [2d\	8r	.
.	8a-/L	.
.	8a-/	.
.	8a-/J	.
=12	=12	=12
*	*^	*
2B\_ 2d\_	8r	2g\	.
.	8ff/L	.	.
.	8ff/	.	.
.	8ff/J	.	.
=13	=13	=13	=13
2B\_ 2d\_	[2dd/	[2g\	.
=14	=14	=14	=14
2B\] 2d\]	8dd/L]	2g\]	.
.	8gg/	.	.
.	8gg/	.	.
.	8ff/J	.	.
*	*v	*v	*
*clefG2	*	*
=15	=15	=15
*^	*	*
8e-/L	2c\	2ee-\	.
8e-/	.	.	.
8e-/	.	.	.
8f/J	.	.	.
=16	=16	=16	=16
2g/	2Bn\	8dd\L	.
.	.	8gg\	.
.	.	8gg\	.
.	.	8ff\J	.
=17	=17	=17	=17
8g/L	2c\	2ee-\	.
8e-/	.	.	.
8e-/	.	.	.
8f/J	.	.	.
*v	*v	*	*
=18	=18	=18
8Bn/ 8g/	8dd\L	<
*clefF4	*	*
8BBBn/ 8GG/ 8BBn/L	8g\ 8dd\ 8gg\	.
8BBB/ 8GG/ 8BB/	8g\ 8dd\ 8gg\	.
8BBB/ 8GG/ 8BB/J	8g\ 8dd\ 8ff\J	.
=19	=19	=19
4CC/ 4GG/ 4C/	4g\ 4cc\ 4ee-\	f
4r	4r	.
=20	=20	=20
4AAA-/ 4AA-/	4c/ 4f#/ 4cc/	.
4r	4r	.
=21	=21	=21
*	*^	*
4GGG/ 4GG/	2gg;/	4g\ 4bn\	.
4r	.	4r	.
*	*v	*v	*
=22	=22	=22
8r	8r	.
8AA-\ 8A-\L	8a-\ 8aa-\L	ff
8AA-\ 8A-\	8a-\ 8aa-\	.
8AA-\ 8A-\J	8a-\ 8aa-\J	.
=23	=23	=23
[2FF/ [2F/	[2f\ [2ff\	.
=24	=24	=24
2FF;/] 2F;/]	2f;\] 2ff;\]	.
=25	=25	=25
2r	8r	.
.	8a-/L	p
.	8a-/	.
.	8a-/J	.
=26	=26	=26
*	*^	*
2r	[2f/	8r	.
.	.	8d\L	.
.	.	8d\	.
.	.	8d\J	.
=27	=27	=27	=27
*^	*	*	*
8r	2r	2f/_	[2Bn\	.
8A-/L	.	.	.	.
8A-/	.	.	.	.
8A-/J	.	.	.	.
=28	=28	=28	=28	=28
[2G/	8r	2f/]	2B\]	p
.	8GGG\ 8GG\L	.	.	.
.	8GGG\ 8GG\	.	.	.
.	8GGG\ 8GG\J	.	.	.
=29	=29	=29	=29	=29
4G/]	4CC\	8e-/L	4c\	.
.	.	8a-/	.	.
4r	4r	8a-/	4r	.
.	.	8a-/J	.	.
*v	*v	*	*	*
=30	=30	=30	=30
2r	[2f/	8r	.
.	.	8d\L	.
.	.	8d\	.
.	.	8d\J	.
=31	=31	=31	=31
*^	*	*	*
8r	2r	2f/_	[2Bn\	.
8A-/L	.	.	.	.
8A-/	.	.	.	.
8A-/J	.	.	.	.
=32	=32	=32	=32	=32
[2G/	8r	8f/]	8B\]	.
.	8GG\L	8dd\ 8ff\L	8r	.
.	8GG\	8dd\ 8ff\	4r	.
.	8GG\J	8dd\ 8ff\J	.	.
*	*	*v	*v	*
=33	=33	=33	=33
4G/]	4C\	8cc\ 8ee-\	.
.	.	8e-/ 8g/L	.
4r	4r	8e-/ 8g/ 8cc/	.
.	.	8e-/ 8cc/J	.
*v	*v	*	*
=34	=34	=34
8r	[2d/ [2f/ 2a-/ (2cc/	<
8CC/ 8C/L	.	.
8CC/ 8C/	.	.
8CC/ 8C/J	.	.
=35	=35	=35
4CC/ 4C/	8d/] 8f/] 8a-/ &(8bn/L&))	.
.	8f/ 8a-/ 8b/	.
4r	8f/ 8a-/ 8b/	.
.	8f/ 8dd/J	.
=36	=36	=36
8r	2e-/ 2g/ 2dd/	.
8CC/ 8C/L	.	.
8CC/ 8C/	.	.
8CC/ 8C/J	.	.
=37	=37	=37
4CC/ 4C/	8e-\ 8g\ 8cc\L	.
.	8e-\ 8g\ 8cc\	.
4r	8e-\ 8g\ 8cc\	.
.	8ee-\J	.
=38	=38	=38
4C\ 4Bn\	8f\ 8a-\ (8ee-\L	.
.	8dd\)	.
4r	8dd'\	.
.	8ff'\J	.
=39	=39	=39
4C\ 4B-\	8g\ 8b-\ (8ff\L	.
.	8een\)	.
4r	8ee'\	.
.	8gg'\J	.
=40	=40	=40
4C\ 4A-\	8a-\ 8cc\ (8gg\L	.
.	8ff\)	.
4r	8ff'\	.
.	8aa-'\J	.
=41	=41	=41
4C\ 4G\ 4B-\	8b-\ 8een\ (8aa-\L	.
.	8gg\)	.
4r	8gg'\	.
.	8bb-'\J	.
=42	=42	=42
4C\ 4F\ 4A-\	8ff\ (8bb-\L	.
.	8aa-\)	.
4r	8aa-'\	.
.	8ccc'\J	.
=43	=43	=43
4C\ 4F\ 4A-\	8ff\ 8aa-\ (8ccc\L	.
.	8bbn\)	.
4r	8bb'\	.
.	8ddd'\J	.
=44	=44	=44
4CC/ 4C/	8ee-\ 8gg\ 8ccc\L	f
.	8eee-\	.
8C\ 8E-\ 8G\L	8eee-\	.
8c\J	8eee-\J	.
=45	=45	=45
8C\ 8E-\ 8G\L	8ccc\L	.
8c\	8gg\	.
8C\ 8E-\ 8G\	8gg\	.
8c\J	8gg\J	.
=46	=46	=46
8C\ 8E-\ 8G\L	8ee-\L	.
8c\	8cc\	.
8C\ 8E-\ 8G\	8g\	.
8c\J	8g\J	.
=47	=47	=47
8C\ 8E-\L	8e-/L	.
8C\ 8E-\ 8G\	8c/	.
8C\ 8E-\ 8G\	8c/	.
8C\ 8E-\ 8G\J	8c/J	.
=48	=48	=48
8GG\ 8D\ 8F\L	8Bn/	.
8G\	8ddd\L	.
8GG\ 8D\ 8F\	8ddd\	.
8G\J	8ddd\J	.
=49	=49	=49
8GG\ 8D\ 8F\L	8bbn\L	.
8G\	8gg\	.
8GG\ 8D\ 8F\	8ff\	.
8G\J	8ff\J	.
=50	=50	=50
8GG\ 8D\ 8F\L	8dd/L	.
8G\	8bn/	.
8GG\ 8D\ 8F\	8g/	.
8G\J	8f/J	.
=51	=51	=51
8GG\ 8D\ 8F\L	8d/L	.
8G\	8Bn/	.
8C\ 8E-\ 8G\	8c/	.
8C\ 8E-\ 8G\J	8c/J	.
=52	=52	=52
8C\ 8E-\ 8G-\L	8c/	ff
8An\	8eee-\L	.
8C\ 8E-\ 8G-\	8eee-\	.
8A\J	8eee-\J	.
=53	=53	=53
8C\ 8E-\ 8G-\L	8ccc\L	.
8An\	8aan\	.
8C\ 8E-\ 8G-\	8aa\	.
8A\J	8aa\J	.
=54	=54	=54
8C\ 8E-\ 8G-\L	8gg-\L	.
8An\	8ee-\	.
8C\ 8E-\ 8G-\	8ee-\	.
8A\J	8ee-\J	.
=55	=55	=55
8C\ 8E-\ 8G-\L	8cc/L	.
8An\	8an/	.
8C\ 8E-\ 8G-\ 8A\	8a/	.
8C\ 8E-\ 8G-\ 8A\J	8a/J	.
=56	=56	=56
4C\ 4E-\ 4G-\ 4An\	4an\ 4ee-\ 4gg-\ 4aan\	.
4r	4r	.
=57	=57	=57
2r	2r	.
=58	=58	=58
4D\ 4F\ 4B-\	4b-\ 4ff\ 4bb-\	.
4r	4r	.
=59	=59	=59
2r	8r	.
.	8b-\L	ff
.	8b-\	.
.	8b-\J	.
=60	=60	=60
2e-\	2r	.
=61	=61	=61
2f\	2r	.
=62	=62	=62
[2B-\	2r	.
=63	=63	=63
*^	*^	*
2e-/	2B-\_	(4b-/	2g\	p
.	.	4ee-/	.	.
=64	=64	=64	=64	=64
2f/	2B-\_	4dd/	2a-\	.
.	.	4ee-/	.	.
=65	=65	=65	=65	=65
&(8d/&)	8B-\]	4ff/	2a-\	.
8r	8BBB-\ 8BB-\L	.	.	.
4r	8BBB-\ 8BB-\	4cc/)	.	.
.	8BBB-\ 8BB-\J	.	.	.
*v	*v	*	*	*
=66	=66	=66	=66
4EE-/ 4E-/	4cc/	2e-\ 2g\	.
4r	4b-/	.	.
=67	=67	=67	=67
*^	*	*	*
2e-/	[2B-\	(4b-/	2g\	.
.	.	4ee-/	.	.
=68	=68	=68	=68	=68
2f/	2B-\_	4dd/	2a-\	.
.	.	4ee-/	.	.
=69	=69	=69	=69	=69
&(8d/&)	8B-\]	4ff/	2a-\	.
8r	8BBB-\ 8BB-\L	.	.	.
4r	8BBB-\ 8BB-\	4cc/)	.	.
.	8BBB-\ 8BB-\J	.	.	.
*v	*v	*	*	*
=70	=70	=70	=70
4EE-/ 4E-/	4cc/	2e-\ 2g\	.
4r	4b-/	.	.
*	*v	*v	*
=71	=71	=71
*^	*	*
2G/ 2B-/	[2BB-\	4b-\ (4bb-\	.
.	.	4ee-\ 4eee-\	.
=72	=72	=72	=72
2F/ &(2A-/&)	2BB-\_	4dd\ 4ddd\	.
.	.	4ee-\ 4eee-\	.
=73	=73	=73	=73
2D/ 2A-/	8BB-\L]	4ff\ 4fff\	.
.	8BB-\	.	.
.	8BB-\	4cc\ 4ccc\)	.
.	8BB-\J	.	.
*v	*v	*	*
=74	=74	=74
2E-\ 2G\	4cc\ (4ccc\	.
.	4b-\ 4bb-\)	.
=75	=75	=75
*	*^	*
2G\ 2B-\	(4b-/	2e-\ 2g\	.
.	4cc/	.	.
=76	=76	=76	=76
2En\ &(2G\&)	4dd-/	2en\ 2g\	.
.	4cc/)	.	.
=77	=77	=77	=77
8r	(4b-/	2en\ 2g\	.
8CC/ 8C/L	.	.	.
8CC/ 8C/	4cc/	.	.
8CC/ 8C/J	.	.	.
=78	=78	=78	=78
4FF/ 4F/	4b-/	2c\ 2f\	.
4r	4a-/)	.	.
=79	=79	=79	=79
2A-\ 2d-\	(4dd-/	2f\ 2a-\	.
.	4ee-/	.	.
=80	=80	=80	=80
2G\ &(2B-\&)	4ff/	2g\ 2b-\	.
.	4ee-/)	.	.
=81	=81	=81	=81
8r	(4dd-/	2g\ 2b-\	.
8EE-/ 8E-/L	.	.	.
8EE-/ 8E-/	4ee-/	.	.
8EE-/ 8E-/J	.	.	.
=82	=82	=82	=82
4AA-\ 4A-\	4dd-/	2e-\ 2a-\	.
4r	4cc/)	.	.
=83	=83	=83	=83
*^	*	*	*
2A-/	2r	2cc/	4e-\ (4ee-\	.
.	.	.	4f\ 4ff\	.
*v	*v	*	*	*
=84	=84	=84	=84
8r	2cc/ 2ee-/	4g-\ 4gg-\	<
8AAn\ 8An\L	.	.	.
8AA\ 8A\	.	4f\ 4ff\	.
8AA\ 8A\J	.	.	.
*	*v	*v	*
=85	=85	=85
4AAn\ 4An\	4e-\ 4ee-\	.
4r	4f\ 4ff\)	.
=86	=86	=86
*	*^	*
8r	2b-/ 2ee-/	4g-\ (4gg-\	.
8BB-\ 8B-\L	.	.	.
8BB-\ 8B-\	.	4f\ 4ff\	.
8BB-\ 8B-\J	.	.	.
*	*v	*v	*
=87	=87	=87
4BB-\ 4B-\	4e-\ 4ee-\	.
4r	4f\ 4ff\)	.
=88	=88	=88
*	*^	*
8r	2an/ 2ee-/	4g-\ (4gg-\	.
8C-\ 8c-\L	.	.	.
8C-\ 8c-\	.	4f\ 4ff\	.
8C-\ 8c-\J	.	.	.
*	*v	*v	*
=89	=89	=89
4C-\ 4c-\	4e-\ 4ee-\	.
4r	4f\ 4ff\)	.
=90	=90	=90
*	*^	*
8r	2an/ 2ee-/	4g-\ (4gg-\	.
8Cn\ 8cn\L	.	.	.
8C\ 8c\	.	4f\ 4ff\	.
8C\ 8c\J	.	.	.
*	*v	*v	*
=91	=91	=91
4C\ 4c\	4e-\ 4ee-\	.
4r	4f\ 4ff\	.
=92	=92	=92
*	*^	*
8r	2an/ 2ee-/	4g-\ 4gg-\	.
8C\ 8c\L	.	.	.
8C\ 8c\	.	4f\ 4ff\	.
8C\ 8c\J	.	.	.
*	*v	*v	*
=93	=93	=93
4C\ 4c\	4g-\ 4gg-\	.
8C\ 8c\L	4an\ 4ee-\ 4gg-\ 4aan\)	.
8C\ 8c\J	.	.
=94	=94	=94
[2D\ [2B-\ [2d\	[2b-\ [2ff\ [2aa-\ [2bb-\	ff
=95	=95	=95
4D\] 4B-\] 4d\]	8b-\] 8ff\] 8aa-\] 8bb-\L]	.
.	8ccc'\	.
4DD/ 4D/	8bb-'\	.
.	8aa-'\J	.
=96	=96	=96
4EE-/ 4BB-/ 4E-/	8b-\ 8ee-\ (8aa-\L	.
.	8gg\)	.
4r	8ff'\	.
.	8ee-'\J	.
=97	=97	=97
4FF/ 4AA-/ 4BB-/ 4F/	8a-\ (8ee-\L	.
.	8dd\)	.
4r	8cc'\	.
.	8dd'\J	.
=98	=98	=98
4GG/ 4BB-/ 4E-/ 4G/	8g\ (8ff\L	.
.	8ee-\)	.
4r	8b-'\	.
.	8g'\J	.
=99	=99	=99
4AA-/ 4C/ 4E-/ 4F/	(8f/ 8dd/L	.
.	8cc/)	.
4r	8a-'/	.
.	8f'/J	.
=100	=100	=100
4BB-\ 4E-\ 4G\	(8e-/ 8cc/L	.
.	8b-/)	.
4r	8g'/	.
.	8e-'/J	.
=101	=101	=101
4BB-\ 4D\ 4F\ 4B-\	8r	.
.	(8aan\L	.
4r	8bb-\	.
.	8aa\J	.
=102	=102	=102
*	*^	*
4DD/ 4AA-/ 4D/	8bb-/L	2ff\	ff
.	8aan/	.	.
4FF/ 4F/	8bb-/	.	.
.	8aa/J)	.	.
=103	=103	=103	=103
4DD/ 4AA-/ 4D/	8bb-/L	4ff\	.
.	8ccc/	.	.
4FF/ 4F/	8bb-/	4r	.
.	8aa-/J	.	.
=104	=104	=104	=104
4EE-/ 4E-/	8ee-/ (8aa-/L	4b-\	.
.	8gg/)	.	.
4GG/ 4G/	8ff/	4b-\	.
.	8ee-/J	.	.
=105	=105	=105	=105
4FF/ 4F/	(8ee-/L	4r	.
.	8dd/)	.	.
4AA-\ 4A-\	8cc/	4b-\	.
.	8dd/J	.	.
=106	=106	=106	=106
4GG/ 4G/	(8ff/L	4r	.
.	8ee-/)	.	.
4BB-\ 4B-\	8b-/	4e-\	.
.	8g/J	.	.
*	*v	*v	*
=107	=107	=107
4AA-\ 4A-\	8dd/L	.
.	8cc/	.
4C\ 4c\	8a-'/	.
.	8f'/J	.
=108	=108	=108
4BB-\ 4B-\	(8cc/L	.
.	8b-/)	.
4BBB-/ 4BB-/	8g'/	.
.	8e-'/J	.
=109	=109	=109
4BB-\ 4B-\	8d/	.
.	8b-\L	.
4F\ 4A-\ 4B-\ 4d\	8bb-\	.
.	8bb-\J	.
=110	=110	=110
8E-\ 8G\ 8B-\ 8e-\	8ee-\	.
8g\L	8gg\ 8ggg\L	.
8g\	8gg\ 8ggg\	.
8g\J	8gg\ 8ggg\J	.
=111	=111	=111
8e-\L	8eee-\L	.
8B-\	8b-\ 8bb-\	.
8B-\	8b-\ 8bb-\	.
8B-\J	8b-\ 8bb-\J	.
=112	=112	=112
8G\ 8g\L	8gg\L	.
8E-\	8e-\ 8ee-\	.
8E-\	8e-\ 8ee-\	.
8E-\J	8e-\ 8ee-\J	.
=113	=113	=113
8BB-\ 8B-\	8b-\	.
8BBB-/ 8BB-/L	8f\ 8dd\ 8ff\L	.
8BBB-/ 8BB-/	8f\ 8dd\ 8ff\	.
8BBB-/ 8BB-/J	8f\ 8dd\ 8ff\J	.
=114	=114	=114
8EE-/ 8E-/	8g\ 8ee-\ 8gg\	.
8g\L	8gg\ 8ggg\L	.
8g\	8gg\ 8ggg\	.
8g\J	8gg\ 8ggg\J	.
=115	=115	=115
8e-\L	8eee-\L	.
8B-\	8b-\ 8bb-\	.
8B-\	8b-\ 8bb-\	.
8B-\J	8b-\ 8bb-\J	.
=116	=116	=116
8G\ 8g\L	8gg\L	.
8E-\	8e-\ 8ee-\	.
8E-\	8e-\ 8ee-\	.
8E-\J	8e-\ 8ee-\J	.
=117	=117	=117
8BB-\ 8B-\	8b-\	.
8BBB-/ 8BB-/L	8b-\ 8dd\ 8ff\ 8bb-\L	.
8BBB-/ 8BB-/	8b-\ 8dd\ 8ff\ 8bb-\	.
8BBB-/ 8BB-/J	8b-\ 8dd\ 8ff\ 8bb-\J	.
=118	=118	=118
4EE-/ 4E-/	4b-\ 4ee-\ 4gg\ 4bb-\	.
4r	4r	.
=119	=119	=119
8r	8r	.
8BBB-/ 8BB-/L	8b-\ 8dd\ 8ff\ 8bb-\L	.
8BBB-/ 8BB-/	8b-\ 8dd\ 8ff\ 8bb-\	.
8BBB-/ 8BB-/J	8b-\ 8dd\ 8ff\ 8bb-\J	.
=120	=120	=120
4EE-/ 4E-/	4b-\ 4ee-\ 4gg\ 4bb-\	.
4r	4r	.
=121	=121	=121
8r	8r	.
8BBB-/ 8BB-/L	8ff\ 8bb-\ 8ddd\L	.
8BBB-/ 8BB-/	8ff\ 8bb-\ 8ddd\	.
8BBB-/ 8BB-/J	8ff\ 8bb-\ 8ddd\J	.
=122	=122	=122
4EE-/ 4E-/	4gg\ 4bb-\ 4eee-\	.
4r	4r	.
=123	=123	=123
2r	2r	.
=124	=124	=124
2r	2r	.
=125:|!	=125:|!	=125:|!
*>B	*>B	*>B
2r	8r	.
.	8b-\L	ff
.	8b-\	.
.	8b-\J	.
=126	=126	=126
*	*^	*
8r	[2g/	8r	.
8DD-/ 8D-/L	.	8d-\L	ff
8DD-/ 8D-/	.	8d-\	.
8DD-/ 8D-/J	.	8d-\J	.
=127	=127	=127	=127
[2CC/ [2C/	2g/_	[2c\	.
=128	=128	=128	=128
2CC;/] 2C;/]	2g;/]	2c\]	.
*	*v	*v	*
=129	=129	=129
2r	8r	.
.	8cc\L	p
.	8cc\	.
.	8cc\J	.
=130	=130	=130
*^	*^	*
[2c/	[2F\	8r	[2a-\	p
.	.	8dd-/L	.	.
.	.	8dd-/	.	.
.	.	8dd-/J	.	.
=131	=131	=131	=131	=131
2c/_	2F\_	8cc/L	2a-\_	.
.	.	8aa-/	.	.
.	.	8aa-/	.	.
.	.	8aa-/J	.	.
=132	=132	=132	=132	=132
8c/L]	2F\_	[2ff/	2a-\_	.
8d-/	.	.	.	.
8d-/	.	.	.	.
8d-/J	.	.	.	.
=133	=133	=133	=133	=133
[2c/	2F\]	8ff/]	8a-\]	.
.	.	8r	8cc\L	.
.	.	4r	8cc\	.
.	.	.	8cc\J	.
=134	=134	=134	=134	=134
2c/_	[2En\	8r	4.g\	.
.	.	8dd-/L	.	.
.	.	8dd-/	.	.
.	.	8dd-/J	8r	.
=135	=135	=135	=135	=135
2c/_	2E\_	8r	[2cc\	.
.	.	8bb-/L	.	.
.	.	8bb-/	.	.
.	.	8bb-/J	.	.
=136	=136	=136	=136	=136
8c/L]	2E\]	[2gg/	2cc\_	.
8d-/	.	.	.	.
8d-/	.	.	.	.
8d-/J	.	.	.	.
=137	=137	=137	=137	=137
[2c/	2En\	8gg/L]	2cc\_	.
.	.	8ccc/	.	.
.	.	8ccc/	.	.
.	.	8bb-/J	.	.
=138	=138	=138	=138	=138
2c/_	2F\	2aa-/	8cc\L]	.
.	.	.	8a-\	.
.	.	.	8a-\	.
.	.	.	8b-\J	.
=139	=139	=139	=139	=139
2c/_	2En\	8gg/L	[2cc\	.
.	.	8ccc/	.	.
.	.	8ccc/	.	.
.	.	8bb-/J	.	.
=140	=140	=140	=140	=140
2c/_	2F\	2aa-/	8cc\L]	.
.	.	.	8a-\	.
.	.	.	8a-\	.
.	.	.	8b-\J	.
=141	=141	=141	=141	=141
2c/_	2En\	8gg/L	2cc\	.
.	.	8ccc/	.	.
.	.	8ccc/	.	.
.	.	8bb-/J	.	.
*	*	*v	*v	*
=142	=142	=142	=142
2c/]	4F\	8aa-\L	.
.	.	8aa-\	<
.	4r	8aa-\	.
.	.	8gg\J	.
*v	*v	*	*
=143	=143	=143
4d\	8ff\L	.
.	8ff\	.
4e-\	8ff\	.
.	8ee-\J	.
=144	=144	=144
4f\	8dd\L	.
.	8dd\	.
4f#\	8dd\	.
.	8cc\J	.
=145	=145	=145
*	*^	*
4r	4bn/	8g\L	.
.	.	8g\	.
4G\	4r	8g\	.
.	.	8fn\J	.
*	*v	*v	*
=146	=146	=146
*^	*	*
2e-/	2c\	8r	.
.	.	8ee-\L	.
.	.	8ee-\	.
.	.	8ff\J	.
*v	*v	*	*
=147	=147	=147
*	*^	*
4G\ 4Bn\	[2gg/	8f\L	.
.	.	8g\	.
4r	.	8g\	.
.	.	8f\J	.
*	*v	*v	*
=148	=148	=148
*^	*	*
2e-/	2c\	8gg\L]	.
.	.	8ee-\	.
.	.	8ee-\	.
.	.	8ff\J	.
*v	*v	*	*
=149	=149	=149
*	*^	*
4G\ 4Bn\	[2gg/	8f\L	.
.	.	8g\	.
4r	.	8g\	.
.	.	8f\J	.
*	*v	*v	*
=150	=150	=150
8e-\L	2g\ (2gg\]	<
8e-\	.	.
8e-\	.	.
8d\J	.	.
=151	=151	=151
8c\L	4an\ 4aan\	.
8c\ 8e-\	.	.
8c\ 8e-\	4b-\ 4bb-\	.
8B-\ 8d\J	.	.
=152	=152	=152
8An\ 8c\L	4cc\ 4ccc\	.
8A\ 8c\	.	.
8A\ 8c\	4cc#\ 4ccc#\)	.
8G\ 8B-\J	.	.
=153	=153	=153
4D\ 4F#\ 4An\	8dd\ 8ddd\L	p
.	8ff#\ 8ddd\	.
4r	8ff#\ 8ddd\	.
.	8aan\ 8ccc\J	.
=154	=154	=154
*^	*	*
8r	4G\	2gg\ 2bb-\	.
8B-/L	.	.	.
8B-/	4r	.	.
8c/J	.	.	.
=155	=155	=155	=155
(2d/	4D\	8ff#\ 8aan\L	.
.	.	8ff#\ 8ddd\	.
.	4r	8ff#\ 8ddd\	.
.	.	8aa\ 8ccc\J	.
=156	=156	=156	=156
8r	4G\)	2gg\ 2bb-\	.
8B-/L	.	.	.
8B-/	4r	.	.
8c/J	.	.	.
=157	=157	=157	=157
8d/L	4D\	4ff#\ 4aan\	.
8d/	.	.	.
8d/	4r	[4dd\ 4ff#\ 4aa\ [4ddd\	.
8c/J	.	.	.
*v	*v	*	*
=158	=158	=158
8G\ 8B-\L	8dd\] 8gg\ 8bb-\ 8ddd\]	.
8B-\	8g/L	.
8B-\	8g/	.
8An\J	8an/J	.
=159	=159	=159
8G\L	8b-\L	.
8G\	8g\ 8gg\	.
8G\	8an\ 8aan\	.
8Fn\J	8b-\ 8bb-\J	.
=160	=160	=160
*^	*	*
8E-/L	[2AAn\	8cc\ 8ff#\ 8ccc\	.
8E-/	.	8e-/ 8f#/L	.
8E-/	.	8e-/ 8an/	.
8D/J	.	8e-/ 8b-/J	.
*v	*v	*	*
=161	=161	=161
8AA\] 8C\L	8e-/ 8cc/	.
8c\	8f#\ 8ff#\L	.
8c\	8an\ 8aan\	.
8B-\J	8b-\ 8bb-\J	.
=162	=162	=162
*^	*	*
8An/L	[2AAn\	8cc\ 8ff#\ 8ccc\	.
8A/	.	8e-/ 8f#/L	.
8A/	.	8e-/ 8an/	.
8G/J	.	8e-/ 8b-/J	.
=163	=163	=163	=163
8F#/L	2AA\]	8e-/ 8cc/	.
8F#/	.	8an\ 8aan\L	.
8F#/	.	8b-\ 8bb-\	.
8E-/J	.	8cc\ 8ccc\J	.
=164	=164	=164	=164
8D/L	8BB-\	8dd\ 8gg\ 8ddd\	.
8D/	8r	8g/L	.
8D/	4r	8g/ 8b-/	.
8C/J	.	8g/ 8cc/J	.
*v	*v	*	*
=165	=165	=165
8BB-\L	8g\ 8dd\	.
8d\	8g\ 8gg\L	.
8d\	8b-\ 8bb-\	.
8c\J	8cc\ 8ccc\J	.
=166	=166	=166
8B-\L	8dd\ 8gg\ 8ddd\	<
8B-\	8g/L	.
8B-\	8g/ 8b-/	.
8An\J	8g/ 8cc/J	.
=167	=167	=167
8BB-/ 8G/L	8g\ 8dd\	.
8BB-/ 8Fn/	8gg\ 8bb-\L	.
8BB-/ 8E-/	8aan\ 8ccc\	.
8BB-/ 8D/J	8bb-\ 8ddd\J	.
=168	=168	=168
8C\ 8E-\ 8F#\ 8An\L	8ee-\ 8ff#\ 8aan\ 8eee-\L	f
8C\ 8E-\ 8F#\ 8A\	8ee-\ 8ff#\ 8aa\ 8eee-\	.
8C\ 8E-\ 8F#\ 8A\	8ee-\ 8ff#\ 8aa\ 8eee-\	.
8C\ 8E-\ 8F#\ 8A\J	8ee-\ 8ff#\ 8aa\ 8eee-\J	.
=169	=169	=169
8C\ 8E-\ 8F#\ 8An\L	8ee-\ 8ff#\ 8aan\ 8eee-\L	.
8C\ 8E-\ 8F#\ 8A\	8ee-\ 8ff#\ 8aa\ 8eee-\	.
8C\ 8E-\ 8F#\ 8A\	8ee-\ 8ff#\ 8aa\ 8eee-\	.
8C\ 8E-\ 8F#\ 8A\J	8ee-\ 8ff#\ 8aa\ 8eee-\J	.
=170	=170	=170
4C\ 4E-\ 4F#\ 4An\	4ee-\ 4ff#\ 4aan\ 4eee-\	.
4r	4r	.
=171	=171	=171
8r	8r	.
8CC#/ 8GG/ 8C#/L	8een\ 8gg\ 8bb-\ 8eeen\L	.
8CC#/ 8GG/ 8C#/	8ee\ 8gg\ 8bb-\ 8eee\	.
8CC#/ 8GG/ 8C#/J	8ee\ 8gg\ 8bb-\ 8eee\J	.
=172	=172	=172
8CC#/ 8GG/ 8C#/L	8een\ 8gg\ 8bb-\ 8eeen\L	.
8CC#/ 8GG/ 8C#/	8ee\ 8gg\ 8bb-\ 8eee\	.
8CC#/ 8GG/ 8C#/	8ee\ 8gg\ 8bb-\ 8eee\	.
8CC#/ 8GG/ 8C#/J	8ee\ 8gg\ 8bb-\ 8eee\J	.
=173	=173	=173
8CC#/ 8GG/ 8C#/L	8een\ 8gg\ 8bb-\ 8eeen\L	.
8CC#/ 8GG/ 8C#/	8ee\ 8gg\ 8bb-\ 8eee\	.
8CC#/ 8GG/ 8C#/	8ee\ 8gg\ 8bb-\ 8eee\	.
8CC#/ 8GG/ 8C#/J	8ee\ 8gg\ 8bb-\ 8eee\J	.
=174	=174	=174
4CC#/ 4GG/ 4C#/	4een\ 4gg\ 4bb-\ 4eeen\	.
4r	4r	.
=175	=175	=175
8r	8r	.
8DD/ 8D/L	8dd\ 8gg\ 8bb-\ 8ddd\L	<
8DD/ 8D/	8dd\ 8gg\ 8bb-\ 8ddd\	.
8DD/ 8D/J	8dd\ 8gg\ 8bb-\ 8ddd\J	.
=176	=176	=176
4DD/ 4D/	4dd\ 4gg\ 4bb-\ 4ddd\	.
4r	4r	.
=177	=177	=177
4r	4r	.
8EEn/ 8En/L	8cc#\ 8gg\ 8bb-\ 8ccc#\L	.
8EE/ 8E/J	8cc#\ 8gg\ 8bb-\ 8ccc#\J	.
=178	=178	=178
4EEn/ 4En/	4cc#\ 4gg\ 4bb-\ 4ccc#\	.
8FF#/ 8F#/L	8dd\ 8aan\ 8ddd\L	.
8FF#/ 8F#/J	8dd\ 8aa\ 8ddd\J	.
=179	=179	=179
4FF#/ 4F#/	8dd\ 8aan\ 8ddd\	ff
.	8dd\ 8ddd\L	.
4r	8dd\ 8ddd\	.
.	8dd\ 8ddd\J	.
=180	=180	=180
2g\	2gg\	.
=181	=181	=181
2an\	2aan\	.
=182	=182	=182
*^	*	*
4r	4r	[2d/ [2dd/	.
8c/L	[4C\	.	.
8c/J	.	.	.
=183	=183	=183	=183
*	*	*^	*
4c/	4C\]	2d/_ 2dd/_	4r	.
4r	4AAn'\ 4An'\	.	8f#/L	.
.	.	.	8f#/J	.
*v	*v	*	*	*
=184	=184	=184	=184
4FF#'/ 4F#'/	2d/_ 2dd/_	4r	.
4DD'/ 4D'/	.	8cc\L	.
.	.	8cc\J	.
=185	=185	=185	=185
4CC'/ 4C'/	4d/] 4dd/]	4cc\	.
4AAAn'/ 4AAn'/	4r	8f#\ 8ff#\L	.
.	.	8f#\ 8ff#\J	.
*	*v	*v	*
=186	=186	=186
4FFF#'/ 4FF#'/	4an\ 4aan\	.
4DDD'/ 4DD'/	8dd\ 8ff#\ 8aa\ 8ddd\L	.
.	8dd\ 8ff#\ 8aa\ 8ddd\J	.
=187	=187	=187
8GGG/ 8GG/	8dd\ 8gg\ 8bbn\	.
8r	8g\ 8gg\L	.
4r	8g\ 8gg\	.
.	8g\ 8gg\J	.
=188	=188	=188
2c\	2cc\	.
=189	=189	=189
2d\	2dd\	.
=190	=190	=190
*	*^	*
4G\	2g/	4r	.
[4F\	.	8Bn\L	.
.	.	8B\J	.
=191	=191	=191	=191
4F\]	2g/	4Bn\	.
4D'\ 4d'\	.	8f\L	.
.	.	8f\J	.
=192	=192	=192	=192
4BBn'\ 4Bn'\	4f\	[2g/	.
4GG'/ 4G'/	8bn\L	.	.
.	8b\J	.	.
=193	=193	=193	=193
4FF'/ 4F'/	4g/]	4bn\	.
4DD'/ 4D'/	4r	8b\ 8ff\L	.
.	.	8b\ 8ff\J	.
*	*v	*v	*
=194	=194	=194
4BBBn/ 4BBn/	4dd\ 4ff\	.
4GGG/ 4GG/	8dd\ 8bbn\ 8ddd\L	.
.	8dd\ 8bb\ 8ddd\J	.
=195	=195	=195
4CC/ 4C/	8een\ 8ccc\ 8eeen\	ff
.	8cc\ 8ccc\L	.
4r	8cc\ 8ccc\	.
.	8cc\ 8ccc\J	.
=196	=196	=196
2A-\ 2c\ 2f\	2ff\	.
=197	=197	=197
2B-\ 2d-\	2g\ 2gg\	.
=198	=198	=198
2GGG/ 2CC/ 2GG/	2G/ 2B-/ 2c/ 2en/	.
=199	=199	=199
2AAA-/ 2CC/ 2AA-/	2A-/ 2c/ 2f/	.
=200	=200	=200
2A-\ 2c\	2f\ 2ff\	.
=201	=201	=201
2B-\ 2d-\	2g\ 2gg\	.
=202	=202	=202
2GGG/ 2CC/ 2GG/	2G/ 2B-/ 2c/ 2en/	.
=203	=203	=203
2AAA-/ 2CC/ 2AA-/	2A-/ 2c/ 2f/	.
=204	=204	=204
2A-\ 2c\	2f\ 2ff\	.
=205	=205	=205
2B-\ 2d-\	2g-\ 2gg-\	.
=206	=206	=206
2BBB-/ 2BB-/	2B-/ 2d-/ 2g-/	.
=207	=207	=207
2CC/ 2C/	2An/ 2e-/ 2an/	.
=208	=208	=208
2c\ 2e-\ 2f\	2an\ 2ee-\ 2aan\	.
=209	=209	=209
2d-\ 2f\	2b-\ 2dd-\ 2bb-\	.
=210	=210	=210
2DD-/ 2D-/	2d-/ 2f/ 2b-/	.
=211	=211	=211
2e-\ 2g-\	2cc-\ 2ccc-\	.
=212	=212	=212
2EE-/ 2E-/	2c-/ 2g-/ 2cc-/	>
=213	=213	=213
2f\ 2a-\	2dd-\ 2ddd-\	.
=214	=214	=214
2FF/ 2F/	2d-/ 2a-/ 2dd-/	.
=215	=215	=215
2f#\ 2an\	2cc#\ 2ccc#\	p
=216	=216	=216
2FFF#/ 2FF#/	2F#/ 2An/ 2c#/	.
=217	=217	=217
2f#\ 2an\	2cc#\ 2aan\ 2ccc#\	.
=218	=218	=218
2FFF#/ 2FF#/	2F#/ 2An/ 2c#/	.
=219	=219	=219
2f#\ 2an\	2cc#\ 2aan\ 2ccc#\	.
=220	=220	=220
2FFF#/ 2FF#/	2F#/ 2An/ 2c#/	.
=221	=221	=221
2f#\ 2an\	2dd\ 2aan\ 2ddd\	pp
=222	=222	=222
*^	*	*
2D/ 2An/ 2d/	2FFF#\ 2FF#\	2r	.
*v	*v	*	*
=223	=223	=223
2f#\ 2an\	2dd\ 2aan\ 2ddd\	.
=224	=224	=224
*^	*	*
2D/ 2An/ 2d/	2FFF#\ 2FF#\	2r	.
*v	*v	*	*
=225	=225	=225
2f#\ 2an\	2dd\ 2aan\ 2ddd\	.
=226	=226	=226
*^	*	*
2D/ 2An/ 2d/	2FFF#\ 2FF#\	2r	.
*v	*v	*	*
=227	=227	=227
2f#\ 2an\	2dd\ 2aan\ 2ddd\	.
=228	=228	=228
8FF#/ 8D/	8An/ 8d/	ff
8DD/ 8D/L	8dd\ 8ddd\L	.
8DD/ 8D/	8dd\ 8ddd\	.
8DD/ 8D/J	8dd\ 8ddd\J	.
=229	=229	=229
2BBBn/ 2BBn/	2dd\ 2bbn\ 2ddd\	.
=230	=230	=230
2CC/ 2C/	2dd\ 2ccc\ 2ddd\	.
=231	=231	=231
[2AAAn/ [2AAn/	[2dd\ [2aan\ [2ddd\	.
=232	=232	=232
2AAA/] 2AA/]	2dd\] 2aa\] 2ddd\]	.
=233	=233	=233
2Bn\ 2f\	2dd\ 2aa-\ 2ddd\	pp
=234	=234	=234
2BBBn/ 2BBn/	2F/ 2A-/ 2d/	.
=235	=235	=235
2Bn\ 2f\	2dd\ 2aa-\ 2ddd\	.
=236	=236	=236
2BBBn/ 2BBn/	2F/ 2A-/ 2d/	.
=237	=237	=237
2Bn\ 2f\	2dd\ 2aa-\ 2ddd\	.
=238	=238	=238
2BBBn/ 2BBn/	2F/ 2A-/ 2d/	.
=239	=239	=239
2Bn\ 2f\	2dd\ 2aa-\ 2ddd\	.
=240	=240	=240
8BBBn/ 8BBn/	8F/ 8A-/ 8d/	f
8AAn\ 8An\L	8r	.
8AA\ 8A\	4r	.
8AA\ 8A\J	.	.
=241	=241	=241
[2FF/ 2F/	8r	.
.	8a-\ 8aa-\L	ff
.	8a-\ 8aa-\	.
.	8a-\ 8aa-\J	.
=242	=242	=242
8FF/] 8F/	[2f\ [2ff\	.
8AA-\ 8A-\L	.	.
8AA-\ 8A-\	.	.
8AA-\ 8A-\J	.	.
=243	=243	=243
[2FF/ [2F/	8f\] 8ff\]	.
.	8a-\ 8aa-\L	.
.	8a-\ 8aa-\	.
.	8a-\ 8aa-\J	.
=244	=244	=244
8FF/] 8F/]	[2f\ [2ff\	.
8AA-\ 8A-\L	.	.
8AA-\ 8A-\	.	.
8AA-\ 8A-\J	.	.
=245	=245	=245
8FF/ 8F/	8f\] 8ff\]	.
8AA-\ 8A-\L	8a-\ 8aa-\L	.
8AA-\ 8A-\	8a-\ 8aa-\	.
8AA-\ 8A-\J	8a-\ 8aa-\J	.
=246	=246	=246
8FF/ 8F/	8f\ 8ff\	.
8AA-\ 8A-\L	8a-\ 8aa-\L	.
8AA-\ 8A-\	8a-\ 8aa-\	.
8AA-\ 8A-\J	8a-\ 8aa-\J	.
=247	=247	=247
8FF/ 8F/	8f\ 8ff\	.
8AA-\ 8A-\L	8aa-\ 8aaa-\L	.
8AA-\ 8A-\	8aa-\ 8aaa-\	.
8AA-\ 8A-\J	8aa-\ 8aaa-\J	.
=248	=248	=248
8FF/ 8F/	8ff\ 8fff\	.
8GG/ 8G/L	8gg\ 8ggg\L	.
8GG/ 8G/	8gg\ 8ggg\	.
8GG/ 8G/J	8gg\ 8ggg\J	.
=249	=249	=249
2EE-;/ 2GG;/ 2E-;/	2gg;\ 2eee-;\ 2ggg;\	.
=250	=250	=250
8r	8r	.
8FF/ 8GG/ 8F/L	8gg\ 8fff\ 8ggg\L	.
8FF/ 8GG/ 8F/	8gg\ 8fff\ 8ggg\	.
8FF/ 8GG/ 8F/J	8gg\ 8fff\ 8ggg\J	.
=251	=251	=251
[2DD/ [2GG/ [2D/	[2gg\ [2ddd\ [2ggg\	.
=252	=252	=252
2DD;/] 2GG;/] 2D;/]	2gg;\] 2ddd;\] 2ggg;\]	.
=253	=253	=253
2r	8r	.
.	8g/L	p
.	8g/	.
.	8g/J	.
=254	=254	=254
*^	*^	*
[2C/	4CC\	8r	[2e-\	.
.	.	8a-/L	.	.
.	4r	8a-/	.	.
.	.	8a-/J	.	.
*v	*v	*	*	*
=255	=255	=255	=255
2C/_	8g/L	2e-\_	.
.	8ee-/	.	.
.	8ee-/	.	.
.	8ee-/J	.	.
=256	=256	=256	=256
4C/]	2cc/	(4e-\]	.
4C/	.	4c\	.
=257	=257	=257	=257
4E-\	8r	4e-\	.
.	8g/L	.	.
&(4C/&)	8g/	4c\)	.
.	8g/J	.	.
=258	=258	=258	=258
[2BBn\ [2Bn\	8r	[2d\	.
.	8a-/L	.	.
.	8a-/	.	.
.	8a-/J	.	.
=259	=259	=259	=259
2BB\_ 2B\_	8g/	8d\]	.
.	8ff\L	8r	.
.	8ff\	4r	.
.	8ff\J	.	.
*	*v	*v	*
=260	=260	=260
4BB\] 4B\]	[2f/ [2g/ [2dd/	.
4GG/ (4G/	.	.
=261	=261	=261
4BBn\ 4Bn\	8f\] 8g\] 8dd\L]	.
.	8gg\	.
4GG/ 4G/)	8gg\	.
.	8ff\J	.
=262	=262	=262
*	*^	*
2C\ 2c\	2ee-/	8r	.
.	.	8e-\L	.
.	.	8e-\	.
.	.	8f\J	.
=263	=263	=263	=263
2BBn\ 2Bn\	8dd/L	2g\	.
.	8gg/	.	.
.	8gg/	.	.
.	8ff/J	.	.
=264	=264	=264	=264
2C\ 2c\	2cc/ 2ee-/	8r	.
.	.	8e-\L	.
.	.	8e-\	.
.	.	8f\J	.
=265	=265	=265	=265
*^	*	*	*
[4G/	4GG\	8dd/L	4g\ 4bn\	.
.	.	8gg/	.	.
8An/L	4G\]	8gg/	8cc\L	.
8Bn/J	.	8ff/J	8dd\J	.
*v	*v	*	*	*
*	*v	*v	*
=266	=266	=266
4C\ 4c\	2ee-\	<
4r	.	.
=267	=267	=267
*	*^	*
4AA-\ 4A-\	2cc/	4c\ 4f#\	.
4r	.	4r	.
=268	=268	=268	=268
4GG/ 4G/	2gg;/	2g\ 2bn\	>
4r	.	.	.
*	*	*free	*
*MM52	*MM52	*MM52	*MM52
1r;	1r;	4ff	.
.	.	4ee-	.
.	.	4dd	.
.	.	16ee-	.
.	.	16dd	.
.	.	16cc	.
.	.	16dd	.
1r;	1r;	4gg	.
.	.	4ee-	.
.	.	4dd;	.
.	.	4r;	.
*	*	*strict	*
*	*v	*v	*
=269	=269	=269
*MM216	*MM216	*MM216
2r	8r	p
.	8a-/L	.
.	8a-/	.
.	8a-/J	.
=270	=270	=270
*	*^	*
2r	[2f/	8r	.
.	.	8d\L	.
.	.	8d\	.
.	.	8d\J	.
=271	=271	=271	=271
2r	[2Bn/ 2f/_	8r	.
.	.	8A-\L	.
.	.	8A-\	.
.	.	8A-\J	.
=272	=272	=272	=272
8r	2B/] 2f/]	2G\	.
8GGG/ 8GG/L	.	.	.
8GGG/ 8GG/	.	.	.
8GGG/ 8GG/J	.	.	.
=273	=273	=273	=273
8C/	8c/ 8e-/	8G\	.
8A-\L	8a-/L	8r	<
8A-\	8a-/	4r	.
8A-\J	8a-/J	.	.
*	*v	*v	*
=274	=274	=274
8F\	[2d/ [2f/	.
8D\L	.	.
8D\	.	.
8D\J	.	.
=275	=275	=275
8BBn/	2d/_ 2f/_ [2bn/	.
8AA-/L	.	.
8AA-/	.	.
8AA-/J	.	.
=276	=276	=276
8GG/	8d/] 8f/] 8b/]	.
8G\L	8d/ 8f/ 8bn/L	.
8G\	8d/ 8f/ 8b/	.
8G\J	8d/ 8f/ 8b/J	.
=277	=277	=277
8C/ 8c/L	8e-/ 8cc/L	f
8C/	8e-/ 8g/	.
8C/	8e-/ 8cc/	.
8C/J	8e-/ 8cc/J	.
=278	=278	=278
*^	*	*
8r	[2C\	[2d/ [2f/ 2cc/	.
8F/ 8A-/L	.	.	.
8F/ 8A-/	.	.	.
8F/ 8A-/J	.	.	.
=279	=279	=279	=279
4F/ 4A-/	8C\L]	8d/] 8f/] 8bn/L	.
.	8C\	8f/ 8a-/ 8b/	.
4r	8C\	8f/ 8a-/ 8b/	.
.	8C\J	8f/ 8dd/J	.
=280	=280	=280	=280
8r	[2C\	[2e-/ [2g/ (2dd/	.
8E-/ 8G/L	.	.	.
8E-/ 8G/	.	.	.
8E-/ 8G/J	.	.	.
=281	=281	=281	=281
4E-/ 4G/	8C\L]	8e-\] 8g\] 8cc\L)	.
.	8C\	8e-\ 8g\ 8cc\	.
4r	8C\	8e-\ 8g\ 8cc\	.
.	8C\J	8ee-\J	.
*v	*v	*	*
=282	=282	=282
4C\ 4Bn\	8f\ 8a-\ (8ee-\L	.
.	8dd\)	.
4r	8dd'\	.
.	8ff'\J	.
=283	=283	=283
4C\ 4B-\	8g\ 8b-\ (8ff\L	.
.	8een\)	.
4r	8ee'\	.
.	8gg'\J	.
=284	=284	=284
4C\ 4A-\	8a-\ 8cc\ (8gg\L	.
.	8ff\)	.
4r	8ff'\	.
.	8aa-'\J	.
=285	=285	=285
4C\ 4G\ 4B-\	8b-\ 8een\ (8aa-\L	.
.	8gg\)	.
4r	8gg'\	.
.	8bb-'\J	.
=286	=286	=286
4C\ 4F\ 4A-\	8cc\ 8ff\ (8bb-\L	.
.	8aa-\)	.
4r	8aa-'\	.
.	8ccc'\J	.
=287	=287	=287
4C\ 4F\ 4A-\	8ff\ 8aa-\ (8ccc\L	.
.	8bbn\)	.
4r	8bb'\	.
.	8ddd'\J	.
=288	=288	=288
4CC/ 4C/	8ee-\ 8gg\ 8ccc\L	f
.	8eee-\	.
8C\ 8E-\ 8G\L	8eee-\	.
8c\J	8eee-\J	.
=289	=289	=289
8C\ 8E-\ 8G\L	8ccc\L	.
8c\	8gg\	.
8C\ 8E-\ 8G\	8gg\	.
8c\J	8gg\J	.
=290	=290	=290
8C\ 8E-\ 8G\L	8ee-\L	.
8c\	8cc\	.
8C\ 8E-\ 8G\	8g\	.
8c\J	8g\J	.
=291	=291	=291
8C\ 8E-\L	8e-/L	.
8C\ 8E-\ 8G\	8c/	.
8C\ 8E-\ 8G\	8c/	.
8C\ 8E-\ 8G\J	8c/J	.
=292	=292	=292
8GG\ 8D\ 8F\L	8Bn/	.
8G\	8fff\L	.
8GG\ 8D\ 8F\	8ddd\	.
8G\J	8ddd\J	.
=293	=293	=293
8GG\ 8D\ 8F\L	8bbn\L	.
8G\	8gg\	.
8GG\ 8D\ 8F\	8ff\	.
8G\J	8ff\J	.
=294	=294	=294
8GG\ 8D\ 8F\L	8dd/L	.
8G\	8bn/	.
8GG\ 8D\ 8F\	8g/	.
8G\J	8f/J	.
=295	=295	=295
8GG\ 8D\ 8F\L	8d/L	.
8G\	8Bn/	.
8C\ 8E-\	8G/ 8c/	.
8C\ 8E-\J	8G/ 8c/J	.
=296	=296	=296
8CC/ 8C/	8An/ 8c/ 8e-/ 8f#/	ff
8e-\L	8ee-\ 8eee-\L	.
8e-\	8ee-\ 8eee-\	.
8e-\J	8ee-\ 8eee-\J	.
=297	=297	=297
8c\L	8cc\ 8ccc\L	.
8An\	8an\ 8aan\	.
8A\	8a\ 8aa\	.
8A\J	8a\ 8aa\J	.
=298	=298	=298
8F#\L	8ff#\L	.
8E-\	8e-\ 8ee-\	.
8E-\	8e-\ 8ee-\	.
8E-\J	8e-\ 8ee-\J	.
=299	=299	=299
8C/L	8cc/L	.
8AAn/	8An/ 8an/	.
8AA/	8A/ 8a/	.
8AA/J	8A/ 8a/J	.
=300	=300	=300
4CC/ 4C/	4An/ 4e-/ 4f#/	.
4r	4r	.
=301	=301	=301
2r	2r	.
=302	=302	=302
4BBBn/ 4GG/ 4BBn/	4G/ 4d/ 4g/	.
4r	4r	.
=303	=303	=303
2r	8r	.
.	8g/L	ff
.	8g/	.
.	8g/J	.
=304	=304	=304
2c\	2r	.
=305	=305	=305
2d\	2r	.
=306	=306	=306
[2G\	2r	.
=307	=307	=307
*^	*^	*
2c/	2G\_	(4g/	2en\	.
.	.	4cc/	.	.
=308	=308	=308	=308	=308
2d/	2G\]	4bn/	[2f\	.
.	.	4cc/	.	.
=309	=309	=309	=309	=309
8Bn/	8G\	4dd/	2f\]	.
8GGG/ 8GG/L	8r	.	.	.
8GGG/ 8GG/	4r	4an/)	.	.
8GGG/ 8GG/J	.	.	.	.
*v	*v	*	*	*
=310	=310	=310	=310
4CC/	(4an/	2c\ 2en\	.
4r	4g/)	.	.
=311	=311	=311	=311
*^	*	*	*
2en/ 2g/	[2G\	(4gg/	2cc\ 2een\	.
.	.	4ccc/	.	.
=312	=312	=312	=312	=312
2d/ 2f/	2G\_	4bbn/	2dd\ 2ff\	.
.	.	4ccc/	.	.
=313	=313	=313	=313	=313
8Bn/ 8d/	8G\]	4ddd/	2ff\	.
8r	8GG\L	.	.	.
4r	8GG\	4aan/)	.	.
.	8GG\J	.	.	.
*v	*v	*	*	*
=314	=314	=314	=314
4CC/ 4C/	(4aan/	2cc\ 2een\	.
4r	4gg/)	.	.
=315	=315	=315	=315
[2G\ 2c\	(4g/	2en\	.
.	4cc/	.	.
=316	=316	=316	=316
2G\_ 2d\	4bn/	[2f\	.
.	4cc/	.	.
=317	=317	=317	=317
*^	*	*	*
8G/] 8Bn/	8r	4dd/	2f\]	.
8r	8GG\L	.	.	.
4r	8GG\	4an/)	.	.
.	8GG\J	.	.	.
*v	*v	*	*	*
=318	=318	=318	=318
4CC/ 4C/	(4an/	2c\ 2en\	.
4r	4g/)	.	.
=319	=319	=319	=319
*^	*	*	*
2en/ 2g/	[2G\	(4gg/	2cc\ 2een\	.
.	.	4ccc/	.	.
=320	=320	=320	=320	=320
2d/ 2f/	2G\_	4bbn/	2dd\ 2ff\	.
.	.	4ccc/	.	.
=321	=321	=321	=321	=321
8Bn/ 8d/	8G\]	4ddd/	2ff\	.
8r	8GG\L	.	.	.
4r	8GG\	4aan/)	.	.
.	8GG\J	.	.	.
*v	*v	*	*	*
=322	=322	=322	=322
4CC/ 4C/	(4aan/	2cc\ 2een\	.
4r	4gg/)	.	.
*	*v	*v	*
=323	=323	=323
2G\ 2B-\	(4b-/	.
.	4cc/	.
=324	=324	=324
*	*^	*
2En\ &(2G\&)	4dd-/	2en\ 2g\	.
.	4cc/)	.	.
=325	=325	=325	=325
8r	(4b-/	2en\ 2g\	p
8CC/ 8C/L	.	.	.
8CC/ 8C/	4cc/	.	.
8CC/ 8C/J	.	.	.
=326	=326	=326	=326
4FF/ 4F/	4b-/	2c\ 2f\	.
4r	4an/)	.	.
=327	=327	=327	=327
2An\ 2c\	(4cc/	2f\ 2an\	.
.	4dd/	.	.
=328	=328	=328	=328
2F#\ &(2An\&)	4ee-/	2f#\ 2an\	.
.	4dd/)	.	.
=329	=329	=329	=329
8r	(4cc/	2f#\ 2an\	.
8DD/ 8D/L	.	.	.
8DD/ 8D/	4dd/	.	.
8DD/ 8D/J	.	.	.
=330	=330	=330	=330
4GG/ 4G/	4cc/	2d\ 2g\	.
4r	4bn/)	.	.
*	*v	*v	*
=331	=331	=331
[2A-\	4fn\ (4ffn\	<
.	4g\ 4gg\	.
=332	=332	=332
8A-\L]	4a-\ 4aa-\	.
8AA-\ 8A-\	.	.
8AA-\ 8A-\	4g\ 4gg\	.
8AA-\ 8A-\J	.	.
=333	=333	=333
4AA-\ 4A-\	4f\ 4ff\	.
4r	4g\ 4gg\)	.
=334	=334	=334
8r	4a-\ (4aa-\	.
8BBn\ 8Bn\L	.	.
8BB\ 8B\	4g\ 4gg\	.
8BB\ 8B\J	.	.
=335	=335	=335
4BBn\ 4Bn\	4f\ 4ff\	.
4r	4g\ 4gg\)	.
=336	=336	=336
8r	4a-\ (4aa-\	.
8D\ 8d\L	.	.
8D\ 8d\	4g\ 4gg\	.
8D\ 8d\J	.	.
=337	=337	=337
4D\ 4d\	4f\ 4ff\	.
4r	4g\ 4gg\)	.
=338	=338	=338
8r	4a-\ (4aa-\	.
8D\ 8d\L	.	.
8D\ 8d\	4g\ 4gg\	.
8D\ 8d\J	.	.
=339	=339	=339
4D\ 4d\	4f#\ 4ff#\	.
4r	4g\ 4gg\)	.
=340	=340	=340
8r	4an\ (4aan\	.
8D\ 8d\L	.	.
8D\ 8d\	4g\ 4gg\	.
8D\ 8d\J	.	.
=341	=341	=341
4D\ 4d\	4f#\ 4ff#\	.
4r	4g\ 4gg\)	.
=342	=342	=342
4r	4an\ (4aan\	.
4D\ 4F\ 4d\	4g\ 4gg\	.
=343	=343	=343
4r	4f#\ 4ff#\	.
4D\ 4F\ 4d\	4g\ 4gg\	.
=344	=344	=344
4r	4f#\ 4ff#\	.
4D\ 4F\ 4d\	4g\ 4gg\	.
=345	=345	=345
4r	4f#\ 4ff#\	.
4D\ 4F\ 4d\	4g\ 4gg\)	.
=346	=346	=346
[2DD/ [2GG/ [2D/	[2bn\ [2ff\ [2gg\	ff
=347	=347	=347
4DD/] 4GG/] 4D/]	8b\] 8ff\] 8gg\L]	.
.	8aan'\	.
4BBBn/ 4GG/ 4BBn/	8gg'\	.
.	8ff'\J	.
=348	=348	=348
4CC/ 4GG/ 4C/	8g\ 8cc\ (8ff\L	.
.	8een\)	.
4r	8dd'\	.
.	8cc'\J	.
=349	=349	=349
4DD/ 4FF/ 4D/	(8f/ 8g/ 8cc/L	.
.	8bn/)	.
4r	8an'/	.
.	8b'/J	.
=350	=350	=350
4EEn/ 4C/ 4En/	(8en/ 8g/ 8dd/L	.
.	8cc/)	.
4r	8g'/	.
.	8e'/J	.
=351	=351	=351
4FF/ 4C/ 4D/ 4F/	(8d/ 8bn/L	.
.	8an/)	.
4r	8f'/	.
.	8d'/J	.
=352	=352	=352
4GG/ 4C/ 4En/ 4G/	(8c/ 8an/L	.
.	8g/)	.
4r	8en'/	.
.	8c'/J	.
=353	=353	=353
4GG/ 4BBn/ 4D/ 4G/	8r	.
.	(8ff#\L	.
4r	8gg\	.
.	8ff#\J	.
=354	=354	=354
4BBBn/ 4BBn/	8gg\L	.
.	8ff#\	.
4DD/ 4D/	8gg\	.
.	8ff#\J	.
=355	=355	=355
4BBBn/ 4BBn/	8gg\L)	.
.	8aan'\	.
4DD/ 4D/	8gg'\	.
.	8ff'\J	.
=356	=356	=356
4CC/ 4C/	8g\ 8cc\ (8ff\L	.
.	8een\)	.
4EEn/ 4En/	8dd'\	.
.	8cc'\J	.
=357	=357	=357
*	*^	*
4DD/ 4D/	(8cc/L	4f\ 4g\	.
.	8bn/)	.	.
4FF/ 4F/	8an/	4r	.
.	8b/J	.	.
=358	=358	=358	=358
4EEn/ 4En/	(8dd/L	4g\	.
.	8cc/)	.	.
4GG/ 4G/	8g/	4r	.
.	8en/J	.	.
*	*v	*v	*
=359	=359	=359
4FF/ 4F/	8bn/L	.
.	8an/	.
4AAn\ 4An\	8f'/	.
.	8d'/J	.
=360	=360	=360
*	*^	*
4GG/ 4G/	(8an/L	4c\ 4en\	.
.	8g/)	.	.
4GGG/ 4GG/	8e/	4r	.
.	8c/J	.	.
*	*v	*v	*
=361	=361	=361
4GG/ 4G/	8Bn/	.
.	8g\L	.
4GG/ 4D/ 4F/ 4G/	8gg\	.
.	8gg\J	.
=362	=362	=362
8C\ 8En\ 8G\ 8c\	8cc\	.
8en\L	8een\ 8eeen\L	.
8e\	8ee\ 8eee\	.
8e\J	8ee\ 8eee\J	.
=363	=363	=363
8c\L	8ccc\L	.
8G\	8g\ 8gg\	.
8G\	8g\ 8gg\	.
8G\J	8g\ 8gg\J	.
=364	=364	=364
8En/ 8en/	8een\	.
8C/	8c\ 8cc\	.
8C/	8c\ 8cc\	.
8C/	8c\ 8cc\	.
=365	=365	=365
8GG/ 8G/	8g/	.
8GGG/ 8GG/L	8d/ 8bn/ 8dd/L	.
8GGG/ 8GG/	8d/ 8b/ 8dd/	.
8GGG/ 8GG/J	8d/ 8b/ 8dd/J	.
=366	=366	=366
8CC/ 8C/	8en/ 8cc/ 8een/	.
8en\L	8ee\ 8eeen\L	.
8e\	8ee\ 8eee\	.
8e\J	8ee\ 8eee\J	.
=367	=367	=367
8c\L	8ccc\L	.
8G\	8g\ 8gg\	.
8G\	8g\ 8gg\	.
8G\J	8g\ 8gg\J	.
=368	=368	=368
8En/ 8en/	8een\	.
8C/	8c\ 8cc\	.
8C/	8c\ 8cc\	.
8C/	8c\ 8cc\	.
=369	=369	=369
8GG/	8g/	.
8GGG/ 8GG/L	8g\ 8bn\ 8dd\ 8gg\L	.
8GGG/ 8GG/	8g\ 8b\ 8dd\ 8gg\	.
8GGG/ 8GG/J	8g\ 8b\ 8dd\ 8gg\J	.
=370	=370	=370
4CC'/ 4C'/	4g\ 4cc\ 4een\ 4gg\	.
4r	4r	.
=371	=371	=371
8r	8r	.
8GGG/ 8GG/L	8g\ 8bn\ 8dd\ 8gg\L	.
8GGG/ 8GG/	8g\ 8b\ 8dd\ 8gg\	.
8GGG/ 8GG/J	8g\ 8b\ 8dd\ 8gg\J	.
=372	=372	=372
4CC/ 4C/	4g\ 4cc\ 4een\ 4gg\	.
4r	4r	.
=373	=373	=373
8r	8r	.
8GGG/ 8GG/L	8dd\ 8gg\ 8bbn\L	.
8GGG/ 8GG/	8dd\ 8gg\ 8bb\	.
8GGG/ 8GG/J	8dd\ 8gg\ 8bb\J	.
=374	=374	=374
[2CC/ [2C/	8cc\ 8een\ 8gg\ 8ccc\	.
.	8cc\ 8ccc\L	.
.	8cc\ 8ccc\	.
.	8cc\ 8ccc\J	.
=375	=375	=375
8CC/] 8C/L]	8cc\ 8ccc\L	.
8CC/ 8C/	8cc\ 8een\ 8ccc\	.
8CC/ 8C/	8cc\ 8ee\ 8ccc\	.
8CC/ 8C/J	8cc\ 8ee\ 8ccc\J	.
=376	=376	=376
[2AAA-/ [2AA-/	8cc\ 8ff\ 8ccc\L	.
.	8cc\ 8ccc\	.
.	8cc\ 8ccc\	.
.	8cc\ 8ccc\J	.
=377	=377	=377
8AAA-/] 8AA-/L]	8cc\ 8ccc\L	.
8AAA-/ 8AA-/	8cc\ 8ff\ 8ccc\	.
8AAA-/ 8AA-/	8cc\ 8ff\ 8ccc\	.
8AAA-/ 8AA-/J	8cc\ 8ff\ 8ccc\J	.
=378	=378	=378
[2EEn/ [2En/	8cc\ 8gg\ 8ccc\L	.
.	8cc\ 8gg\ 8ccc\	.
.	8cc\ 8gg\ 8ccc\	.
.	8cc\ 8gg\ 8ccc\J	.
=379	=379	=379
8EE/] 8E/L]	8cc\ 8ccc\L	.
8EEn/ 8En/	8cc\ 8gg\ 8ccc\	.
8EE/ 8E/	8cc\ 8gg\ 8ccc\	.
8EE/ 8E/J	8cc\ 8gg\ 8ccc\J	.
=380	=380	=380
[2FF/ 2F/	8cc\ 8aa-\ 8ccc\L	.
.	8cc\ 8ccc\	.
.	8cc\ 8ccc\	.
.	8cc\ 8ccc\J	.
=381	=381	=381
8FF/] 8F/L	8cc\ 8ccc\L	.
8FF/ 8F/	8cc\ 8aa-\ 8ccc\	.
8FF/ 8F/	8cc\ 8aa-\ 8ccc\	.
8FF/ 8F/J	8cc\ 8aa-\ 8ccc\J	.
=382	=382	=382
8FF/ 8AA-/ 8D-/ 8F/L	8dd-\ 8aa-\ 8ddd-\L	ff
8FF/ 8F/	8dd-\ 8aa-\ 8ddd-\	.
8FF/ 8F/	8dd-\ 8aa-\ 8ddd-\	.
8FF/ 8F/J	8dd-\ 8aa-\ 8ddd-\J	.
=383	=383	=383
8FF/ 8F/L	8dd-\ 8aa-\ 8ddd-\L	.
8FF/ 8F/	8dd-\ 8aa-\ 8ddd-\	.
8FF/ 8F/	8dd-\ 8aa-\ 8ddd-\	.
8FF/ 8F/J	8dd-\ 8aa-\ 8ddd-\J	.
=384	=384	=384
8FF/ 8F/L	8dd-\ 8aa-\ 8ddd-\L	.
8FF/ 8F/	8dd-\ 8aa-\ 8ddd-\	.
8FF/ 8F/	8dd-\ 8aa-\ 8ddd-\	.
8FF/ 8F/J	8dd-\ 8aa-\ 8ddd-\J	.
=385	=385	=385
8FF/ 8F/L	8dd-\ 8aa-\ 8ddd-\L	.
8FF/ 8F/	8dd-\ 8aa-\ 8ddd-\	.
8FF/ 8F/	8dd-\ 8aa-\ 8ddd-\	.
8FF/ 8F/J	8dd-\ 8aa-\ 8ddd-\J	.
=386	=386	=386
4FF/ 4F/	4dd-\ 4aa-\ 4ddd-\	.
4r	4r	.
=387	=387	=387
2r	8r	.
.	8f/L	.
.	8f/	.
.	8f/J	.
=388	=388	=388
2r	4a-/	.
.	4r	.
=389	=389	=389
2r	2r	.
=390	=390	=390
8r	8r	.
8FF#/ 8F#/L	8ee-\ 8aan\ 8ccc\ 8eee-\L	ff
8FF#/ 8F#/	8ee-\ 8aa\ 8ccc\ 8eee-\	.
8FF#/ 8F#/J	8ee-\ 8aa\ 8ccc\ 8eee-\J	.
=391	=391	=391
8FF#/ 8F#/L	8ee-\ 8aan\ 8ccc\ 8eee-\L	.
8FF#/ 8F#/	8ee-\ 8aa\ 8ccc\ 8eee-\	.
8FF#/ 8F#/	8ee-\ 8aa\ 8ccc\ 8eee-\	.
8FF#/ 8F#/J	8ee-\ 8aa\ 8ccc\ 8eee-\J	.
=392	=392	=392
8FF#/ 8F#/L	8ee-\ 8aan\ 8ccc\ 8eee-\L	.
8FF#/ 8F#/	8ee-\ 8aa\ 8ccc\ 8eee-\	.
8FF#/ 8F#/	8ee-\ 8aa\ 8ccc\ 8eee-\	.
8FF#/ 8F#/J	8ee-\ 8aa\ 8ccc\ 8eee-\J	.
=393	=393	=393
8FF#/ 8F#/L	8ee-\ 8aan\ 8ccc\ 8eee-\L	.
8FF#/ 8F#/	8ee-\ 8aa\ 8ccc\ 8eee-\	.
8FF#/ 8F#/	8ee-\ 8aa\ 8ccc\ 8eee-\	.
8FF#/ 8F#/J	8ee-\ 8aa\ 8ccc\ 8eee-\J	.
=394	=394	=394
8FF#/ 8F#/L	8ee-\ 8aan\ 8ccc\ 8eee-\L	.
8FF#/ 8F#/	8ee-\ 8aa\ 8ccc\ 8eee-\	.
8FF#/ 8F#/	8ee-\ 8aa\ 8ccc\ 8eee-\	.
8FF#/ 8F#/J	8ee-\ 8aa\ 8ccc\ 8eee-\J	.
=395	=395	=395
4FF#/ 4F#/	4ee-\ 4aan\ 4ccc\ 4eee-\	.
4r	4r	.
=396	=396	=396
8r	8r	.
8c\L	8cc\ 8ccc\L	f
8c\	8cc\ 8ccc\	.
8c\J	8cc\ 8ccc\J	.
=397	=397	=397
4e-\	4ee-\ 4eee-\	.
4r	4r	.
=398	=398	=398
2r	8r	.
.	8g/L	f
.	8g/	.
.	8g/J	.
=399	=399	=399
*	*^	*
4GGG/ 4GG/	2e-/	4G\	f
4r	.	4r	.
*	*v	*v	*
=400	=400	=400
*^	*	*
2f/	2r	(8bn\L	.
.	.	8cc\	.
.	.	8dd\	.
.	.	8ee-\J	.
=401	=401	=401	=401
*	*	*^	*
[2d/	2r	[2bbn/	8ff\L	.
.	.	.	8gg\	.
.	.	.	8aa-\	.
.	.	.	8gg\J	.
=402	=402	=402	=402	=402
8d/L]	2r	2bb/]	8aa-\L	.
8g/	.	.	8gg\	.
8g/	.	.	8aa-\	.
8g/J	.	.	8gg\J)	.
*	*	*v	*v	*
*	*	*clefF4	*clefF4
=403	=403	=403	=403
2e-/	4G\	4GG'^/	.
.	4r	4r	.
*v	*v	*	*
*	*clefG2	*clefG2
=404	=404	=404
2f\	(8bn\L	.
.	8cc\	.
.	8dd\	.
.	8ee-\J	.
=405	=405	=405
*	*^	*
[2d\	[2bbn/	8ff\L	.
.	.	8gg\	.
.	.	8aa-\	.
.	.	8gg\J	.
=406	=406	=406	=406
8d\L]	2bb/]	8aa-\L	.
8g\	.	8gg\	.
8g\	.	8aa-\	.
8g\J	.	8gg\J)	.
*	*v	*v	*
=407	=407	=407
4e-\	8aa-\L	f
.	8gg\	.
4f\	8bb-\	.
.	8aa-\J	.
=408	=408	=408
4d\	8gg\L	.
.	8ff\	.
4e-\	8aa-\	.
.	8ff\J	.
=409	=409	=409
4c\	8ff\L	.
.	8ee-\	.
4d\	8gg\	.
.	8ff\J	.
=410	=410	=410
4B-\	8ee-\L	.
.	8dd\	.
4c\	8ff\	.
.	8ee-\J	.
=411	=411	=411
4AA-\ 4A-\	8dd\L	.
.	8cc\	.
4BB-\ 4B-\	8ee-\	.
.	8dd\J	.
=412	=412	=412
4GG/ 4G/	8cc\L	.
.	8b-\	.
4AA-\ 4A-\	8dd\	.
.	8cc\J	.
=413	=413	=413
4FF/ 4F/	8b-\L	.
.	8a-\	.
4GG/ 4G/	8cc\	.
.	8b-\J	.
=414	=414	=414
4EE-/ 4E-/	8a-/L	.
.	8g/	.
4FF/ 4F/	8b-/	.
.	8a-/J	.
=415	=415	=415
4DD/ 4D/	8f/L	.
.	8g/	.
4CC/ 4GG/ 4C/	8G/ 8e-/	.
.	8g/J	.
=416	=416	=416
4BBBn/ 4GG/ 4BBn/	8G/ 8d/L	.
.	8g/	.
4CC/ 4C/	8G/ 8e-/	.
.	8g/J	.
=417	=417	=417
4DD/ 4GG/ 4D/	8G/ 8f/L	.
.	8g/	.
4CC/ 4GG/ 4C/	8G/ 8e-/	.
.	8g/J	.
=418	=418	=418
4DD/ 4GG/ 4D/	8G/ 8f/L	.
.	8g/	.
4EEn/ 4C/ 4En/	8c/ 8g/	.
.	8cc/J	.
=419	=419	=419
4FF/ 4C/ 4F/	8c/ 8a-/L	.
.	8cc/	.
4EEn/ 4C/ 4En/	8c/ 8g/	.
.	8cc/J	.
=420	=420	=420
4FF/ 4C/ 4F/	8c/ 8a-/L	.
.	8cc/J	.
4GG/ 4G/	8g\ 8bn\L	.
.	8ff\J	.
=421	=421	=421
4AA-\ 4A-\	8g\ 8cc\L	.
.	8ff\	.
4GG/ 4G/	8g\ 8bn\	.
.	8ff\J	.
=422	=422	=422
4AAn\ 4G\ 4An\	8g\ 8cc\L	.
.	8ff\	.
4BBn\ 4G\ 4Bn\	8g\ 8dd\	.
.	8gg\J	.
=423	=423	=423
[2C\ [2c\	4e-/ (4ee-/	.
.	4cc\)	.
=424	=424	=424
2C\] 2c\]	4d'/ 4dd'/	.
.	4e-'/ 4ee-'/	.
=425	=425	=425
*	*^	*
[2AA-\ [2C\ [2A-\	2cc\	(4f/ 4ff/	.
.	.	4d/) 4dd/	.
*	*v	*v	*
=426	=426	=426
2AA-\] 2C\] 2A-\]	4e-'/ 4ee-'/	.
.	4f'\ 4ff'\	.
=427	=427	=427
*	*^	*
[2EE-/ [2C/ [2E-/	2cc/	4g\ (4gg\	.
.	.	4e-\ 4ee-\)	.
*	*v	*v	*
=428	=428	=428
2EE-/] 2C/] 2E-/]	4f'\ 4ff'\	.
.	4g\ 4gg\	.
=429	=429	=429
*	*^	*
2FF/ 2C/ 2F/	4a-\ (4aa-\	2cc/	.
.	4f\ 4ff\)	.	.
*	*v	*v	*
=430	=430	=430
2EE-/ 2C/ 2E-/	4g'\ 4gg'\	.
.	4an'\ 4aan'\	.
=431	=431	=431
*	*^	*
2DD/ 2GG/ 2D/	2ff/	4bn\ (4bbn\	.
.	.	4g\ 4gg\)	.
*	*v	*v	*
=432	=432	=432
2FF/ 2GG/ 2F/	4an'\ 4aan'\	.
.	4bn'\ 4bbn'\	.
=433	=433	=433
4EE-/ 4GG/ 4E-/	4cc\ (4ccc\	.
4r	4gg\)	.
=434	=434	=434
4CC/ 4C/	4a-'\ 4ee-'\ 4aa-'\	.
4r	4e-'/ 4ee-'/	.
=435	=435	=435
4FF/ 4F/	4f'\ 4a-'\ 4cc'\ 4ff'\	.
4r	4d'/ 4dd'/	.
=436	=436	=436
4DD/ 4D/	4e-'/ 4a-'/ 4cc'/ 4ee-'/	.
4r	4f'\ 4ff'\	.
=437	=437	=437
4GG/ 4G/	4g'\ 4cc'\ 4dd'\ 4gg'\	.
4r	4f#'\ 4ff#'\	.
=438	=438	=438
4GGG/ 4GG/	4g'\ 4bn'\ 4dd'\ 4gg'\	.
4r	4g'/	.
=439	=439	=439
2CC/ 2C/	2c/ 2cc/	ff
=440	=440	=440
*^	*	*
4C'\ 4c'\	4D/	4d'/ 4cc'/ 4dd'/	.
4C'\ 4c'\	4E-/	4e-'/ 4cc'/ 4ee-'/	.
=441	=441	=441	=441
*	*	*^	*
2C\ 2c\	(4F/	2cc\	(4f/ 4ff/	.
.	4D/)	.	4d/) 4dd/	.
*v	*v	*	*	*
*	*v	*v	*
=442	=442	=442
4EE-'/ 4C'/	4c'/ 4e-'/ 4cc'/	.
4FF'/ 4C'/	4c'/ 4f'/ 4cc'/	.
=443	=443	=443
*^	*^	*
2C/	(4GG\	2c/ 2cc/	4g\	.
.	4EE-\)	.	4e-\	.
*	*	*v	*v	*
=444	=444	=444	=444
4F/	4C'\ 4c'\	4f'\ 4cc'\ 4ff'\	.
4G/	4C'\ 4c'\	4g'\ 4cc'\ 4gg'\	.
=445	=445	=445	=445
*	*	*^	*
(4A-/	2C\ 2c\	4a-\ (4aa-\	2cc/	.
4F/)	.	4f\ 4ff\)	.	.
*v	*v	*	*	*
*	*v	*v	*
=446	=446	=446
4GGG'/ 4GG'/	4Bn'/ 4g'/ 4bn'/	.
4AAAn'/ 4AAn'/	4c'/ 4g'/ 4cc'/	.
=447	=447	=447
*	*^	*
(4BBBn/ 4BBn/	2g\	4d/ (4dd/	.
4GGG/) 4GG/	.	4Bn/ 4bn/)	.
*	*v	*v	*
=448	=448	=448
4G'\ 4An'\ 4c'\	4cc'\ 4aan'\ 4ccc'\	.
4G'\ 4Bn'\ 4d'\	4dd'\ 4bbn'\ 4ddd'\	.
=449	=449	=449
2G\ 2c\ 2e-\	4ee-\ 4ccc\ (4eee-\	.
.	4cc\ 4gg\ 4ccc\)	.
=450	=450	=450
4GGG'/ 4GG'/	4Bn'/ 4g'/ 4bn'/	.
4AAAn'/ 4AAn'/	4c'/ 4g'/ 4cc'/	.
=451	=451	=451
*	*^	*
(4BBBn/ 4BBn/	2g\	4d/ (4dd/	.
4GGG/) 4GG/	.	4Bn/ 4bn/)	.
*	*v	*v	*
=452	=452	=452
4G'\ 4An'\ 4c'\	4cc'\ 4aan'\ 4ccc'\	.
4G'\ 4Bn'\ 4d'\	4dd'\ 4bbn'\ 4ddd'\	.
=453	=453	=453
4c\ 4e-\	4ee-\ 4ccc\ (4eee-\	.
4G\ 4d\	4dd\ 4bb-\ 4ddd\	.
=454	=454	=454
4A-\ 4c\	4cc\ 4aa-\ 4ccc\	.
4E-\ 4B-\	4b-\ 4gg\ 4bb-\	.
=455	=455	=455
4F\ 4A-\	4a-\ 4ff\ 4aa-\	.
4C\ &(4G\&)	4g\ 4ee-\ 4gg\)	.
=456	=456	=456
*	*^	*
(4FF/ 4F/	4f/ 4a-/	2c\	.
4CC/) 4C/	4e-/ 4g/	.	.
=457	=457	=457	=457
4F\ (4A-\	4ff/ (4aa-/	2cc\	.
4C\ 4G\)	4ee-/ 4gg/)	.	.
*	*v	*v	*
=458	=458	=458
(4FF/ 4F/	4aa-\ 4ccc\ 4fff\ (4aaa-\	.
4CC/) 4C/	4gg\ 4ccc\ 4eee-\ 4ggg\)	.
=459	=459	=459
4GG/ 4C/ 4E-/ 4G/	4r	.
4r	4gg\ 4ccc\ 4eee-\ 4ggg\	.
=460	=460	=460
4GGG/ 4BBBn/ 4DD/ 4GG/	4r	.
4r	4gg\ 4bbn\ 4ddd\ 4ggg\	.
=461	=461	=461
4C\ 4c\	4e-/ (4ee-/	.
4GG/ 4G/	4b-\ 4dd\	.
=462	=462	=462
4AA-\ 4A-\	4c/ 4cc/	.
4EE-/ 4E-/	4g/ 4b-/	.
=463	=463	=463
*	*^	*
4FF/ 4F/	4f/ 4a-/	2c\	.
4CC/ &(4C/&)	4e-/ 4g/)	.	.
=464	=464	=464	=464
4C\ 4F\ (4A-\	4ff/ (4aa-/	2cc\	.
4C\ 4E-\ 4G\)	4ee-/ 4gg/)	.	.
=465	=465	=465	=465
(4FF/ 4F/	4f/ 4a-/	2c\	.
4CC/) 4C/	4e-/ 4g/	.	.
=466	=466	=466	=466
4C\ 4F\ (4A-\	4ff/ (4aa-/	2cc\	.
4C\ 4E-\ 4G\)	4ee-/ 4gg/)	.	.
*	*v	*v	*
=467	=467	=467
4GG/ 4C/ 4E-/ 4G/	4g\ 4cc\ 4ee-\ 4gg\	ff
4G\ 4c\ 4e-\	4gg\ 4ccc\ 4eee-\ 4ggg\	.
=468	=468	=468
4GGG/ 4BBBn/ 4DD/ 4GG/	4g\ 4bn\ 4dd\ 4gg\	.
4GG/ 4BBn/ 4D/ 4G/	4gg\ 4bbn\ 4ddd\ 4ggg\	.
=469	=469	=469
8CC/ 8GG/ 8C/	8cc\ 8ee-\ 8ccc\	.
8G\L	8g\ 8gg\L	.
8G\	8g\ 8gg\	.
8G\J	8g\ 8gg\J	.
=470	=470	=470
*^	*^	*
8r	[2G\	8r	2g\ (2gg\	.
8d/ 8f/L	.	8bn/ 8dd/L)	.	.
8d/ 8f/	.	8b/ 8dd/	.	.
8d/ 8f/J	.	8b/ 8dd/J	.	.
=471	=471	=471	=471	=471
[2d/ [2f/	2G\_	[2g\ [2gg\	[2bn/ [2dd/	.
=472	=472	=472	=472	=472
4d/] 4f/]	2G\_	4b/] 4dd/]	2g\] (2gg\]	.
4c/ 4e-/	.	4cc/ 4ee-/	.	.
=473	=473	=473	=473	=473
4Bn/ 4d/	2G\]	4dd/ 4ff/	[2g\ [2gg\	.
4d/ 4f/	.	4bn/ 4dd/	.	.
*v	*v	*	*	*
=474	=474	=474	=474
8r	4cc/ 4ee-/)	2g\] 2gg\_	.
8GGG/ 8GG/L	.	.	.
8GGG/ 8GG/	4dd/ 4ff/	.	.
8GGG/ 8GG/J	.	.	.
*	*v	*v	*
=475	=475	=475
8CC/ 8C/	8g\ 8cc\ 8ee-\ 8gg\]	.
8GG/L	8g\ 8gg\L	.
8GG/	8g\ 8gg\	.
8GG/J	8g\ 8gg\J	.
=476	=476	=476
8GG/	8g\ 8gg\	.
8GG/ 8G/L	8gg\ 8ggg\L	.
8GG/ 8G/	8gg\ 8ggg\	.
8GG/ 8G/J	8gg\ 8ggg\J	.
=477	=477	=477
8GG/ 8G/L	8gg\ 8ggg\L	.
8GG/ 8G/	8gg\ 8ggg\	.
8GG/ 8G/	8gg\ 8ggg\	.
8GG/ 8G/J	8gg\ 8ggg\J	.
=478	=478	=478
8GG/ 8G/L	8gg\ 8ggg\L	ff
8GG^/ 8G^/	8gg^\ 8ggg^\	.
8GG^/ 8G^/	8gg^\ 8ggg^\	.
8GG^/ 8G^/J	8gg^\ 8ggg^\J	.
=479	=479	=479
2EE-;/ 2GG;/ 2E-;/	2gg;\ 2eee-;\ 2ggg;\	.
=480	=480	=480
8r	8r	.
8FF/ 8GG/ 8F/L	8gg\ 8fff\ 8ggg\L	ff
8FF/ 8GG/ 8F/	8gg\ 8fff\ 8ggg\	.
8FF/ 8GG/ 8F/J	8gg\ 8fff\ 8ggg\J	.
=481	=481	=481
[2DD/ [2GG/ [2D/	[2gg\ [2ddd\ [2ggg\	.
=482	=482	=482
2DD;/] 2GG;/] 2D;/]	2gg;\] 2ddd;\] 2ggg;\]	.
=483	=483	=483
2r	8r	.
.	8g/L	pp
.	8g/	.
.	8g/J	.
=484	=484	=484
*	*^	*
[2CC/ 2GG/	8r	[2e-\	pp
.	8a-/L	.	.
.	8a-/	.	.
.	8a-/J	.	.
=485	=485	=485	=485
2CC/] 2GG/	8g/L	4e-\]	.
.	8ee-/	.	.
.	8ee-/	4r	.
.	8ee-/J	.	.
=486	=486	=486	=486
[2CC/ [2GG/	4r	[2cc\	.
.	(4aa-/	.	.
=487	=487	=487	=487
2CC/] 2GG/]	8gg/)	8cc\]	.
.	8g/L	8r	.
.	8g/	4r	.
.	8g/J	.	.
=488	=488	=488	=488
[2CC/ [2GG/	8r	[2e-\	.
.	8a-/L	.	.
.	8a-/	.	.
.	8a-/J	.	.
=489	=489	=489	=489
2CC/_ 2GG/_	8g/L	4e-\]	.
.	8ee-/	.	.
.	8ee-/	4r	.
.	8ee-/J	.	.
=490	=490	=490	=490
2CC/_ 2GG/_	4r	[2cc\	.
.	(4aa-/	.	.
=491	=491	=491	=491
8CC/] 8GG/]	8gg/)	8cc\]	.
8GGG/ 8GG/L	8r	8g\ 8bn\ 8dd\ 8gg\L	ff
8GGG/ 8GG/	4r	8g\ 8b\ 8dd\ 8gg\	.
8GGG/ 8GG/J	.	8g\ 8b\ 8dd\ 8gg\J	.
*	*v	*v	*
=492	=492	=492
4CC/ 4C/	4g\ 4cc\ 4ee-\ 4gg\	.
4r	4r	.
=493	=493	=493
8r	8r	.
8GGG/ 8GG/L	8g\ 8bn\ 8dd\ 8gg\L	.
8GGG/ 8GG/	8g\ 8b\ 8dd\ 8gg\	.
8GGG/ 8GG/J	8g\ 8b\ 8dd\ 8gg\J	.
=494	=494	=494
4CC/ 4C/	4g\ 4cc\ 4ee-\ 4gg\	.
4r	4r	.
=495	=495	=495
8r	8r	.
8GGG/ 8GG/L	8g\ 8bn\ 8dd\ 8gg\L	.
8GGG/ 8GG/	8g\ 8b\ 8dd\ 8gg\	.
8GGG/ 8GG/J	8g\ 8b\ 8dd\ 8gg\J	.
=496	=496	=496
4CC/ 4C/	4g\ 4cc\ 4ee-\ 4gg\	.
4GGG/ 4GG/	4g\ 4bn\ 4dd\ 4gg\	.
=497	=497	=497
4CC/ 4C/	4g\ 4cc\ 4ee-\ 4gg\	.
4GGG/ 4GG/	4g\ 4bn\ 4dd\ 4gg\	.
=498	=498	=498
4CC/ 4C/	4g\ 4cc\ 4ee-\ 4gg\	.
4GG/ 4G/	4bn\ 4dd\ 4gg\ 4bbn\	.
=499	=499	=499
4C\ 4E-\ 4G\ 4c\	4cc\ 4ee-\ 4gg\ 4ccc\	.
4GG/ 4G/	4bn\ 4dd\ 4gg\ 4bbn\	.
=500	=500	=500
4C\ 4E-\ 4G\ 4c\	4cc\ 4ee-\ 4gg\ 4ccc\	.
4r	4r	.
=501	=501	=501
4GGG/ 4GG/	4Bn/ 4d/ 4g/ 4bn/	.
4r	4r	.
=502	=502	=502
4CC/ 4EE-/ 4GG/ 4C/	4c/ 4e-/ 4g/ 4cc/	.
4r	4r	.
==	==	==
*-	*-	*-
!!!ENC: Craig Stuart Sapp
!!!END: 2004/11/29/
